X:1
T:Kingdom of Song, 98.98 D
T:Thomas Miles Bowdish, 1900
T:Kingdom of Song, 98.98 D
T:Public Domain
C:Thomas Miles Bowdish, 1900
Z:Public Domain
%%score ( 1 2 ) ( 3 4 )
L:1/8
M:6/8
K:C
V:1 treble 
V:2 treble 
V:3 bass 
V:4 bass 
V:1
 [EG] | [EG]>[EG][EG] [CE][DF][EG] | [FA]3 [Fc]2 [FA] | [EG]>[EG][EG] [Ec][FB][Ec] | %4
 [Gd]3- [Gd]2 G | [Ge]>[Fd][Ec] [Ec][Fd][Ge] | [Fd]3 [Fc]2 [FA] | [EG]>[EG][EG] [FG][FA][FB] | %8
 [Ec]3- [Ec]2 C | CEF GEG | c3 G2 [Ge] | [Gd]>[Ac][GB] [Ac][GB][^FA] | G3- G2 [FG] | %13
 [EG]>[Ec][Ec] [Ec][Fd][Ge] | [Fd]3 [Fc]2 [FA] | [EG]>[EG][EG] [FG][FA][FB] | [Ec]3- [Ec]2 |] %17
V:2
 x | x6 | x6 | x6 | x5 G | x6 | x6 | x6 | x5 C | CEF GEG | c3 G2 x | x6 | G3- G2 x | x6 | x6 | x6 | %16
 x5 |] %17
V:3
 [C,C] | [C,C]>[C,C][C,C] [C,G,][C,G,][C,C] | [F,C]3 [F,A,]2 [F,C] | %3
 [C,C]>[C,C][C,C] [E,G,][D,G,][C,G,] | [G,B,]3- [G,B,]2 G, | [C,C]>[C,C][C,C] [C,C][C,C][C,C] | %6
 [F,A,]3 [F,A,]2 [F,C] | [G,C]>[G,C][G,C] [G,,B,][G,,C][G,,G,] | [C,G,]3- [C,G,]2 C, | %9
 C,E,F, G,E,G, | C3 G,2 [C,C] | [D,B,]>[D,C][D,D] [D,D][D,D][C,C] | [G,B,]3- [G,B,]2 [G,B,] | %13
 [C,C]>[C,G,][C,G,] [C,G,][C,G,][C,G,] | [F,A,]3 [F,A,]2 [F,C] | %15
 [G,C]>[G,C][G,C] [G,,B,][G,,C][G,,G,] | [C,G,]3- [C,G,]2 |] %17
V:4
 x | x6 | x6 | x6 | x5 G, | x6 | x6 | x6 | x5 C, | C,E,F, G,E,G, | C3 G,2 x | x6 | x6 | x6 | x6 | %15
 x6 | x5 |] %17

